svg/file-icons/Hygen.svg

<svg version="1.1" xmlns="http://www.w3.org/2000/svg" width="512px" height="512px"><path fill-rule="evenodd" clip-rule="evenodd" d="M259.5310364,372.5241394c0-62.4044189,50.5888062-112.993103,112.993103-112.993103H512V112.993103C512,50.5886841,461.4113159,0,399.006897,0H112.993103C50.5886841,0,0,50.5886841,0,112.993103V399.006897C0,461.4111938,50.5886841,512,112.993103,512h146.5379333V372.5241394z M275.4206848,181.8482819h-97.1034393v-35.3103485h97.1034393V181.8482819z M321.3241272,88.2758636h61.7931213v35.3103409h-61.7931213V88.2758636z M130.6482697,88.2758636h173.0207062v35.3103409H130.6482697V88.2758636z M81.2137909,88.2758636h31.7793121v35.3103409H81.2137909V88.2758636z M81.2137909,146.5379333h77.6827545v35.3103485H81.2137909V146.5379333z M81.2137909,206.5655212h118.2896576v35.3103333H81.2137909V206.5655212z M81.2137909,361.9310303h31.7793121v35.3103638H81.2137909V361.9310303z M165.9586182,450.2069092H81.2137909v-35.3103638h84.7448273V450.2069092z M254.2344818,450.2069092H183.6138v-35.3103638h70.6206818V450.2069092z M254.2344818,397.241394H130.6482697v-35.3103638h123.5862122V397.241394z M410.4827576,361.9310303h16.7723999v35.3103638h-52.0827332l-17.6551819,17.6551514h6.1793213v35.3103638h-41.4896545l-56.4965515,56.4965515h128c62.4044189,0,112.993103-50.5888062,112.993103-112.993103v-128L410.4827576,361.9310303z M395.4758606,450.2069092h-21.1862183v-35.3103638h21.1862183V450.2069092z"/></svg>

<svg xmlns="http://www.w3.org/2000/svg" width="512" height="512"><path fill-rule="evenodd" d="M259.531 372.524c0-62.404 50.589-112.993 112.993-112.993H512V112.993C512 50.59 461.411 0 399.007 0H112.993C50.59 0 0 50.589 0 112.993v286.014C0 461.41 50.589 512 112.993 512h146.538V372.524zm15.89-190.676h-97.104v-35.31h97.104v35.31zm45.903-93.572h61.793v35.31h-61.793v-35.31zm-190.676 0H303.67v35.31H130.65v-35.31zm-49.434 0h31.78v35.31h-31.78v-35.31zm0 58.262h77.683v35.31H81.214v-35.31zm0 60.028h118.29v35.31H81.213v-35.31zm0 155.365h31.78v35.31h-31.78v-35.31zm84.745 88.276H81.214v-35.31h84.745v35.31zm88.275 0h-70.62v-35.31h70.62v35.31zm0-52.966H130.648v-35.31h123.586v35.31zm156.249-35.31h16.772v35.31h-52.083l-17.655 17.656h6.18v35.31h-41.49l-56.497 56.496h128c62.405 0 112.993-50.588 112.993-112.993v-128l-96.22 96.221zm-15.007 88.276H374.29v-35.31h21.186v35.31z" clip-rule="evenodd"/></svg>
